public/svg/removip-logo-header.svg

<svg width="117" height="21" viewBox="0 0 117 21" fill="none" xmlns="http://www.w3.org/2000/svg">
<g id="Group 19">
<path id="Fill 1" fill-rule="evenodd" clip-rule="evenodd" d="M4.49973 12.3237V18.8761C4.49973 20.049 3.51332 21 2.29668 21H2.20305C0.986414 21 0 20.049 0 18.8761V12.3237C0 11.171 0.228634 10.0643 0.685636 9.00206C1.14264 7.94086 1.793 7.00266 2.63671 6.1895C3.4807 5.37532 4.45279 4.74908 5.55458 4.30824C5.72619 4.23945 5.89886 4.17629 6.07259 4.1185C7.50539 3.64134 9 4.66444 9 6.12583V6.2524C9 7.15276 8.38518 7.92373 7.50274 8.21882C6.88209 8.42645 6.32032 8.77217 5.81796 9.25624C4.93923 10.1037 4.49973 11.1265 4.49973 12.3237" fill="#EBEAEA"/>
<path id="Fill 3" fill-rule="evenodd" clip-rule="evenodd" d="M21.4119 9.44546C20.6173 8.64807 19.6775 8.2495 18.5924 8.2495C17.406 8.2495 16.3938 8.6651 15.5545 9.49481C14.6968 10.3441 14.2769 11.3729 14.2964 12.5804C14.3149 13.7263 14.8179 14.8215 15.6614 15.6071C16.5381 16.4238 17.5972 16.8024 18.8403 16.7437C19.9042 16.6934 20.9037 16.2217 21.6573 15.4769V15.4769C22.0878 15.0515 22.7554 14.9701 23.2776 15.279L24.3586 15.9188C25.288 16.4689 25.4473 17.7363 24.6825 18.4948L24.6673 18.5096C23.862 19.3065 22.9329 19.9208 21.882 20.3529C20.83 20.7841 19.7332 21 18.5924 21C17.4508 21 16.354 20.7841 15.3028 20.3529C14.2509 19.9208 13.3227 19.3065 12.5174 18.5096C11.7111 17.713 11.0902 16.7938 10.6541 15.7542C10.2175 14.7136 10 13.6286 10 12.5C10 11.3707 10.2175 10.2864 10.6541 9.2458C11.0902 8.20616 11.7111 7.28702 12.5174 6.49038C13.3227 5.69273 14.2509 5.07922 15.3028 4.64733C16.354 4.21594 17.4508 4 18.5924 4C19.7332 4 20.83 4.21594 21.882 4.64733C22.9329 5.07922 23.862 5.69273 24.6673 6.49038C25.4729 7.28702 26.0938 8.20616 26.5304 9.2458C26.7056 9.66767 26.8462 10.0961 26.952 10.5309C27.1708 11.43 26.62 12.3384 25.7261 12.6082L19.284 14.551C18.3351 14.8371 17.3348 14.2924 17.0714 13.3462L16.8643 12.6022C16.6113 11.6941 17.1335 10.7517 18.0434 10.4738L21.4119 9.44546Z" fill="#EBEAEA"/>
<path id="Fill 5" fill-rule="evenodd" clip-rule="evenodd" d="M31.1423 12.5V19.2569C31.1423 20.2196 30.3817 21 29.4432 21H28.6991C27.7607 21 27 20.2196 27 19.2569V12.5C27 11.3707 27.2098 10.2864 27.6308 9.2458C28.051 8.20616 28.65 7.28702 29.4273 6.49038C30.2041 5.69273 31.0991 5.07922 32.1135 4.64733C33.1272 4.21594 34.1848 4 35.2856 4C36.3855 4 37.4431 4.21594 38.4575 4.64733C39.4712 5.07922 40.3672 5.69273 41.1437 6.49038C41.2622 6.61188 41.3806 6.73914 41.5 6.87216C41.6184 6.73914 41.7369 6.61188 41.8556 6.49038C42.6328 5.69273 43.5281 5.07922 44.5425 4.64733C45.5559 4.21594 46.6135 4 47.7136 4C48.8145 4 49.8714 4.21594 50.8858 4.64733C51.9002 5.07922 52.7951 5.69273 53.5727 6.49038C54.3492 7.28702 54.948 8.20616 55.3683 9.2458C55.7895 10.2864 56 11.3707 56 12.5V19.2569C56 20.2196 55.2393 21 54.3009 21H53.5561C52.6176 21 51.8569 20.2196 51.8569 19.2569V12.5C51.8569 11.3271 51.4525 10.325 50.643 9.49481C49.8338 8.6651 48.8577 8.2495 47.7136 8.2495C46.5703 8.2495 45.5945 8.6651 44.785 9.49481C43.9754 10.325 43.5713 11.3271 43.5713 12.5V19.2569C43.5713 20.2196 42.8104 21 41.8719 21H41.1271C40.1887 21 39.428 20.2196 39.428 19.2569V12.5696C39.428 11.412 38.9967 10.2879 38.194 9.47402C37.3894 8.65834 36.4192 8.2495 35.2856 8.2495C34.1416 8.2495 33.1655 8.6651 32.356 9.49481C31.5475 10.325 31.1423 11.3271 31.1423 12.5" fill="#EBEAEA"/>
<g id="Group 9">
<mask id="mask0_0_321" style="mask-type:luminance" maskUnits="userSpaceOnUse" x="59" y="4" width="17" height="17">
<path id="Clip 8" fill-rule="evenodd" clip-rule="evenodd" d="M59 4H76V21H59V4Z" fill="white"/>
</mask>
<g mask="url(#mask0_0_321)">
<path id="Fill 7" fill-rule="evenodd" clip-rule="evenodd" d="M67.5 16.7496C68.6729 16.7496 69.675 16.3347 70.5044 15.5045C71.3349 14.6748 71.7495 13.6727 71.7495 12.5001C71.7495 11.3271 71.3349 10.3251 70.5044 9.49459C69.675 8.66513 68.6729 8.24952 67.5 8.24952C66.3263 8.24952 65.325 8.66513 64.4948 9.49459C63.6651 10.3251 63.2495 11.3271 63.2495 12.5001C63.2495 13.6727 63.6651 14.6748 64.4948 15.5045C65.325 16.3347 66.3263 16.7496 67.5 16.7496M67.5 21.0001C66.3707 21.0001 65.2857 20.7839 64.2458 20.3528C63.2052 19.9209 62.287 19.3064 61.4904 18.5097C60.6927 17.7131 60.0785 16.7939 59.6473 15.754C59.2152 14.7134 59 13.6284 59 12.5001C59 11.3707 59.2152 10.2865 59.6473 9.24583C60.0785 8.20593 60.6927 7.28704 61.4904 6.49014C62.287 5.69275 63.2052 5.07923 64.2458 4.64709C65.2857 4.21595 66.3707 4 67.5 4C68.6286 4 69.7136 4.21595 70.7542 4.64709C71.7938 5.07923 72.713 5.69275 73.5096 6.49014C74.3065 7.28704 74.9208 8.20593 75.3527 9.24583C75.7841 10.2865 76 11.3707 76 12.5001C76 13.6284 75.7841 14.7134 75.3527 15.754C74.9208 16.7939 74.3065 17.7131 73.5096 18.5097C72.713 19.3064 71.7938 19.9209 70.7542 20.3528C69.7136 20.7839 68.6286 21.0001 67.5 21.0001" fill="#EBEAEA"/>
</g>
</g>
<path id="Fill 10" fill-rule="evenodd" clip-rule="evenodd" d="M96.5 17V17C97.3284 17 98 16.0485 98 14.8749V2.12513C98 0.951459 97.3284 0 96.5 0V0C95.6716 0 95 0.951459 95 2.12513V14.8749C95 16.0485 95.6716 17 96.5 17" fill="#EBEAEA"/>
<g id="Group 14">
<mask id="mask1_0_321" style="mask-type:luminance" maskUnits="userSpaceOnUse" x="100" y="0" width="17" height="20">
<path id="Clip 13" fill-rule="evenodd" clip-rule="evenodd" d="M100 0H117V20H100V0Z" fill="white"/>
</mask>
<g mask="url(#mask1_0_321)">
<path id="Fill 12" fill-rule="evenodd" clip-rule="evenodd" d="M108.5 11.9995C109.673 11.9995 110.675 11.609 111.505 10.8277C112.335 10.0468 112.75 9.10382 112.75 8.00003C112.75 6.89602 112.335 5.95299 111.505 5.17142C110.675 4.39079 109.673 3.99965 108.5 3.99965C107.326 3.99965 106.325 4.39079 105.495 5.17142C104.665 5.95299 104.25 6.89602 104.25 8.00003C104.25 9.10382 104.665 10.0468 105.495 10.8277C106.325 11.609 107.326 11.9995 108.5 11.9995V11.9995ZM100 8.00003C100 6.93709 100.215 5.91663 100.647 4.93725C101.078 3.95858 101.693 3.09368 102.49 2.34374C103.287 1.59333 104.205 1.01571 105.246 0.609229C106.286 0.203454 107.371 -2.28882e-05 108.5 -2.28882e-05C109.629 -2.28882e-05 110.714 0.203454 111.754 0.609229C112.794 1.01571 113.713 1.59333 114.51 2.34374C115.306 3.09368 115.921 3.95858 116.353 4.93725C116.784 5.91663 117 6.93709 117 8.00003C117 9.06203 116.784 10.0832 116.353 11.0626C115.921 12.0413 115.306 12.9061 114.51 13.6561C113.713 14.4058 112.794 14.9841 111.754 15.3906C110.714 15.7964 109.629 15.9999 108.5 15.9999C107.371 15.9999 106.286 15.7964 105.246 15.3906C104.902 15.2553 104.571 15.0993 104.25 14.9213V18.3575C104.25 19.2647 103.458 20 102.481 20H101.768C100.792 20 100 19.2647 100 18.3575V8.00003Z" fill="#EBEAEA"/>
</g>
</g>
<path id="Fill 15" fill-rule="evenodd" clip-rule="evenodd" d="M84.8557 16.7429V16.7429C85.8911 16.1574 86.2986 14.7603 85.7661 13.622L79.9827 1.25802C79.4503 0.119926 78.1796 -0.328246 77.1442 0.256958V0.256958C76.1091 0.842413 75.7014 2.23979 76.2338 3.37788L82.0172 15.7418C82.5497 16.8802 83.8206 17.3283 84.8557 16.7429" fill="#EBEAEA"/>
<path id="Fill 17" fill-rule="evenodd" clip-rule="evenodd" d="M83.1443 16.7429V16.7429C82.1089 16.1574 81.7014 14.7603 82.2339 13.622L88.0173 1.25802C88.5497 0.119926 89.8204 -0.328246 90.8558 0.256958V0.256958C91.8909 0.842413 92.2986 2.23979 91.7662 3.37788L85.9828 15.7418C85.4503 16.8802 84.1794 17.3283 83.1443 16.7429" fill="#EBEAEA"/>
</g>
</svg>

<svg xmlns="http://www.w3.org/2000/svg" xmlns:xlink="http://www.w3.org/1999/xlink" viewBox="0 0 119 23.33"><defs><style>.cls-1,.cls-2{fill:none;}.cls-1{clip-rule:evenodd;}.cls-3{clip-path:url(#clip-path);}.cls-4{fill:#ebeaea;}.cls-5{clip-path:url(#clip-path-2);}.cls-6{clip-path:url(#clip-path-3);}.cls-7{clip-path:url(#clip-path-4);}.cls-8{clip-path:url(#clip-path-5);}.cls-9{clip-path:url(#clip-path-6);}.cls-10{clip-path:url(#clip-path-7);}.cls-11{clip-path:url(#clip-path-8);}.cls-12{clip-path:url(#clip-path-9);}.cls-13{clip-path:url(#clip-path-10);}</style><clipPath id="clip-path" transform="translate(1 1.33)"><path class="cls-1" d="M4.5,12.32v6.56A2.16,2.16,0,0,1,2.3,21H2.2A2.16,2.16,0,0,1,0,18.88V12.32A8.27,8.27,0,0,1,.69,9a8.36,8.36,0,0,1,2-2.81A8.94,8.94,0,0,1,5.55,4.31l.52-.19A2.19,2.19,0,0,1,9,6.13v.12a2.11,2.11,0,0,1-1.5,2,4.38,4.38,0,0,0-1.68,1A4.09,4.09,0,0,0,4.5,12.32"/></clipPath><clipPath id="clip-path-2" transform="translate(1 1.33)"><path class="cls-1" d="M21.41,9.45a3.83,3.83,0,0,0-2.82-1.2,4.18,4.18,0,0,0-3,1.25,4.07,4.07,0,0,0-1.25,3.08,4.26,4.26,0,0,0,4.54,4.16,4.37,4.37,0,0,0,2.82-1.26,1.33,1.33,0,0,1,1.62-.2l1.08.64a1.64,1.64,0,0,1,.32,2.58h0a8.53,8.53,0,0,1-2.79,1.84,8.65,8.65,0,0,1-6.58,0,8.38,8.38,0,0,1-2.78-1.84,8.42,8.42,0,0,1,0-12A8.38,8.38,0,0,1,15.3,4.65a8.65,8.65,0,0,1,6.58,0,8.53,8.53,0,0,1,2.79,1.84,8.62,8.62,0,0,1,1.86,2.76A7.66,7.66,0,0,1,27,10.53a1.76,1.76,0,0,1-1.22,2.08l-6.45,1.94a1.76,1.76,0,0,1-2.21-1.2l-.21-.75A1.74,1.74,0,0,1,18,10.47Z"/></clipPath><clipPath id="clip-path-3" transform="translate(1 1.33)"><path class="cls-1" d="M31.14,12.5v6.76A1.72,1.72,0,0,1,29.44,21H28.7A1.72,1.72,0,0,1,27,19.26V12.5a8.59,8.59,0,0,1,.63-3.25,8.45,8.45,0,0,1,1.8-2.76,8.14,8.14,0,0,1,11.71,0l.36.38.36-.38a8.14,8.14,0,0,1,11.71,0,8.45,8.45,0,0,1,1.8,2.76A8.59,8.59,0,0,1,56,12.5v6.76A1.72,1.72,0,0,1,54.3,21h-.74a1.72,1.72,0,0,1-1.7-1.74V12.5a4.13,4.13,0,0,0-1.22-3,4.06,4.06,0,0,0-5.86,0,4.16,4.16,0,0,0-1.21,3v6.76A1.72,1.72,0,0,1,41.87,21h-.74a1.72,1.72,0,0,1-1.7-1.74V12.57a4.4,4.4,0,0,0-1.24-3.1,4.06,4.06,0,0,0-5.83,0,4.13,4.13,0,0,0-1.22,3"/></clipPath><clipPath id="clip-path-4" transform="translate(1 1.33)"><path class="cls-1" d="M67.5,21A8.49,8.49,0,0,1,59.65,9.25a8.5,8.5,0,1,1,13.86,9.26,8.54,8.54,0,0,1-6,2.49m0-4.25a4.27,4.27,0,0,0,4.25-4.25A4.27,4.27,0,0,0,67.5,8.25a4.25,4.25,0,0,0-4.25,4.25,4.25,4.25,0,0,0,4.25,4.25"/></clipPath><clipPath id="clip-path-5" transform="translate(1 1.33)"><rect class="cls-2" x="59" y="4" width="17" height="17"/></clipPath><clipPath id="clip-path-6" transform="translate(1 1.33)"><path class="cls-1" d="M96.5,17h0c.83,0,1.5-.95,1.5-2.12V2.12C98,1,97.33,0,96.5,0S95,1,95,2.12V14.88c0,1.17.67,2.12,1.5,2.12"/></clipPath><clipPath id="clip-path-7" transform="translate(1 1.33)"><path class="cls-1" d="M100,8a7.54,7.54,0,0,1,.65-3.06,7.86,7.86,0,0,1,1.84-2.6A8.59,8.59,0,0,1,105.25.61a9,9,0,0,1,6.5,0,8.59,8.59,0,0,1,2.76,1.73,7.86,7.86,0,0,1,1.84,2.6,7.53,7.53,0,0,1,0,6.12,7.86,7.86,0,0,1-1.84,2.6,8.59,8.59,0,0,1-2.76,1.73,9,9,0,0,1-6.5,0,8.32,8.32,0,0,1-1-.47v3.44A1.71,1.71,0,0,1,102.48,20h-.71A1.71,1.71,0,0,1,100,18.36Zm8.5,4a4.22,4.22,0,0,0,3-1.17A3.72,3.72,0,0,0,112.75,8a3.72,3.72,0,0,0-1.25-2.83,4.44,4.44,0,0,0-6,0,3.85,3.85,0,0,0,0,5.66A4.26,4.26,0,0,0,108.5,12Z"/></clipPath><clipPath id="clip-path-8" transform="translate(1 1.33)"><rect class="cls-2" x="100" width="17" height="20"/></clipPath><clipPath id="clip-path-9" transform="translate(1 1.33)"><path class="cls-1" d="M84.86,16.74h0a2.44,2.44,0,0,0,.91-3.12L80,1.26a2,2,0,0,0-2.84-1,2.44,2.44,0,0,0-.91,3.12L82,15.74a2,2,0,0,0,2.84,1"/></clipPath><clipPath id="clip-path-10" transform="translate(1 1.33)"><path class="cls-1" d="M83.14,16.74h0a2.44,2.44,0,0,1-.91-3.12L88,1.26a2,2,0,0,1,2.84-1,2.44,2.44,0,0,1,.91,3.12L86,15.74a2,2,0,0,1-2.84,1"/></clipPath></defs><g id="Camada_2" data-name="Camada 2"><g id="Camada_1-2" data-name="Camada 1"><g class="cls-3"><rect class="cls-4" y="3.97" width="11" height="19.36"/></g><g class="cls-5"><rect class="cls-4" x="10" y="4.33" width="19.17" height="19"/></g><g class="cls-6"><rect class="cls-4" x="27" y="4.33" width="31" height="19"/></g><g class="cls-7"><g class="cls-8"><rect class="cls-4" x="59" y="4.33" width="19" height="19"/></g></g><g class="cls-9"><rect class="cls-4" x="95" y="0.33" width="5" height="19"/></g><g class="cls-10"><g class="cls-11"><rect class="cls-4" x="100" y="0.33" width="19" height="22"/></g></g><g class="cls-12"><rect class="cls-4" x="75.7" width="12.6" height="19.66"/></g><g class="cls-13"><rect class="cls-4" x="81.7" width="12.6" height="19.66"/></g></g></g></svg>
